src/pos-icons/calendar-weekend.svg

<svg height="24" viewBox="0 0 24 24" width="24" xmlns="http://www.w3.org/2000/svg"><path d="m19 20v-11h-14v11zm-3-18h2v2h1a2 2 0 0 1 2 2v14a2 2 0 0 1 -2 2h-14a2 2 0 0 1 -2-2v-14a2 2 0 0 1 2-2h1v-2h2v2h8zm-9 16v-7h2v7zm8-7h2v7h-2z"/></svg>

<?xml version="1.0" encoding="UTF-8"?><!DOCTYPE svg PUBLIC "-//W3C//DTD SVG 1.1//EN" "http://www.w3.org/Graphics/SVG/1.1/DTD/svg11.dtd"><svg xmlns="http://www.w3.org/2000/svg" xmlns:xlink="http://www.w3.org/1999/xlink" version="1.1" id="mdi-calendar-weekend" width="24" height="24" viewBox="0 0 24 24"><path d="M19,20V9H5V20H19M16,2H18V4H19A2,2 0 0,1 21,6V20A2,2 0 0,1 19,22H5A2,2 0 0,1 3,20V6A2,2 0 0,1 5,4H6V2H8V4H16V2M7,18V11H9V18H7M15,11H17V18H15V11Z" /></svg>
